public/icons/noimage.svg

<svg width="256" height="192" xmlns="http://www.w3.org/2000/svg"><g fill="#BCBCBB" fill-rule="evenodd"><path d="M0 0v192h256V0H0zm232 168H24.002V24H232v144zm0 0"/><circle cx="158.399" cy="66.003" r="19.999"/><path d="M107.148 56l51.454 66.945 20.644-28.586L216 152H40.002l67.146-96zm0 0"/></g></svg>

<?xml version="1.0" encoding="UTF-8" standalone="no"?>
<svg width="256px" height="192px" viewBox="0 0 256 192" version="1.1" xmlns="http://www.w3.org/2000/svg" xmlns:xlink="http://www.w3.org/1999/xlink" xmlns:sketch="http://www.bohemiancoding.com/sketch/ns">
    <title>no-image</title>
    <description>Created with Sketch (http://www.bohemiancoding.com/sketch)</description>
    <defs></defs>
    <g id="Page-1" stroke="none" stroke-width="1" fill="none" fill-rule="evenodd" sketch:type="MSPage">
        <g id="no-image-256" sketch:type="MSLayerGroup" fill="#BCBCBB">
            <g id="icon" sketch:type="MSShapeGroup">
                <path d="M0,0 L0,192 L256,192 L256,0 L0,0 L0,0 L0,0 L0,0 Z M232,168 L24.002,168 L24.002,24 L232,24 L232,168 L232,168 L232,168 L232,168 Z M232,168" id="Shape"></path>
                <circle d="M158.399,86.002 C169.444143,86.002 178.398,77.0481433 178.398,66.003 C178.398,54.9578567 169.444143,46.004 158.399,46.004 C147.353857,46.004 138.4,54.9578567 138.4,66.003 C138.4,77.0481433 147.353857,86.002 158.399,86.002 Z M158.399,86.002" id="Oval" cx="158.399" cy="66.003" r="19.999"></circle>
                <path d="M107.148,56 L158.602,122.945 L179.246,94.359 L216,152 L40.002,152 L107.148,56 Z M107.148,56" id="Shape"></path>
            </g>
        </g>
    </g>
</svg>
